src/lib/packages/icons/src/assets/filled/telegram.svg

<svg width="24" height="24" viewBox="0 0 24 24" fill="none" xmlns="http://www.w3.org/2000/svg">
<path d="M4.24001 11.46C9.07001 9.34001 12.29 7.95 13.91 7.27C18.51 5.34 19.47 5.01 20.09 5C20.23 5 20.53 5.03 20.73 5.19C20.9 5.33 20.94 5.51 20.97 5.64C20.99 5.77 21.02 6.07 21 6.3C20.75 8.94 19.67 15.33 19.12 18.28C18.89 19.53 18.43 19.95 17.99 19.99C17.03 20.08 16.3 19.35 15.36 18.74C13.9 17.78 13.08 17.18 11.66 16.24C10.02 15.16 11.08 14.56 12.02 13.59C12.26 13.34 16.51 9.46001 16.59 9.10001C16.6 9.06001 16.61 8.89 16.51 8.81C16.41 8.72 16.27 8.75 16.17 8.78C16.02 8.81 13.69 10.36 9.18001 13.43C8.52001 13.89 7.92003 14.11 7.38003 14.1C6.79003 14.09 5.65001 13.76 4.80001 13.49C3.76001 13.15 2.94003 12.97 3.01003 12.39C3.05003 12.09 3.46001 11.78 4.24001 11.47V11.46Z" fill="currentColor"/>
</svg>

<svg xmlns="http://www.w3.org/2000/svg" width="24" height="24" fill="none"><path fill="currentColor" d="M4.24 11.46c4.83-2.12 8.05-3.51 9.67-4.19 4.6-1.93 5.56-2.26 6.18-2.27.14 0 .44.03.64.19.17.14.21.32.24.45.02.13.05.43.03.66-.25 2.64-1.33 9.03-1.88 11.98-.23 1.25-.69 1.67-1.13 1.71-.96.09-1.69-.64-2.63-1.25-1.46-.96-2.28-1.56-3.7-2.5-1.64-1.08-.58-1.68.36-2.65.24-.25 4.49-4.13 4.57-4.49.01-.04.02-.21-.08-.29-.1-.09-.24-.06-.34-.03-.15.03-2.48 1.58-6.99 4.65-.66.46-1.26.68-1.8.67-.59-.01-1.73-.34-2.58-.61-1.04-.34-1.86-.52-1.79-1.1.04-.3.45-.61 1.23-.92v-.01Z"/></svg>
